X:1
T:Morgenlied
T:Ludwig Uhland
T:Conradin Kreutzer, Op. 79
T:Morgenlied
T:CPDL - Creative Commons Attribution Non Commercial 3.0
T:CPDL - Creative Commons Attribution Non Commercial 3.0
T:CPDL - Creative Commons Attribution Non Commercial 3.0
T:CPDL - Creative Commons Attribution Non Commercial 3.0
C:Conradin Kreutzer
Z:Ludwig Uhland
Z:CPDL - Creative Commons Attribution Non Commercial 3.0
%%score [ 1 2 ( 3 4 ) ]
L:1/8
Q:1/4=90
M:3/4
K:G
V:1 treble-8 nm="Tenor\n1"
V:2 treble-8 nm="Tenor\n2"
V:3 bass nm="Bass"
V:4 bass 
V:1
"^Mäßig" z2 | z6 | z4 z"^dolce" d | de d3 g | gd d4 | z6 | z4 z d | de d3 a | ad d4 | z6 | %10
w: ||1.~Noch|ahnt man kaum der|Son- ne Licht,||noch|sind die Mor- gen-|glo- cken nicht||
 z4 z!f! f |!mf! f^e"^dim." f3 e | f^e !fermata!f2 z!pp! .B | .B2 z2 B2 |!>(! (B2!>)! g2) e2 | %15
w: im|fins- tern Tal er-|klun- * gen. 2.~Wie|still des|Wal- * des|
 (^c3 d) ^de | e2 z2!pp! .g2 | .g2 z2 .A2 | .A2 z2 .f2 | .f2 z2 .d2 | .d2 z2!pp! .d2 | %21
w: wei- * ter _|Raum! wie|still, wie|still, wie|still, wie|still! Die|
 .d.e .d.e .d.e | d4 d2 | de de de | d4 d2 |!<(! ^c4!<)! g2 |!p!!>(! g4!>)! ^c2 | d6 | %28
w: Vög- lein zwit- schern nur im|Traum, die|Vög- lein zwit- schern nur im|Traum, kein|Sang hat|sich er-|schwun-|
 d2 !fermata!z2 z2 | z6 | z4 z!pp! d | de d3 g | gd d4 | z6 | z4 z d | de"^cresc." d3 a | %36
w: gen.||3.~Ich|hab' mich längst ins|Feld ge- macht,||und|ha- be schon dies|
 ad d2 z B |!<(! Bc d3 ^d!<)! |!f! ef g4 |!f! AB cd ef |!<(! g6-!<)! | g4 g2 |!ff! gg g2 g2 | %43
w: Lied er- dacht, und|hab' es laut ge-|sun- * gen,|ha- be schon dies Lied er-|dacht|_ und|hab' es laut ge-|
 (g2 fe f2) | g4 z2 | z4!f! g2 | fa d3 f | gb d3 g | fa d3 f | g6- | g6 | !fermata!G4 |] %52
w: sun- * * *|gen,|ich|hab' es laut ge-|sun- * gen, und|hab' es laut ge-|sun-||gen.|
V:2
!pp! B2 | BB B3 B | BB B4- | B6- | B4 B2 | cc c3 c | cc c4- | c6- | c4 c2 | Bc B3 c | Bc B4- | %11
w: 1.~Noch|ahnt man kaum der|Son- ne Licht,|_|* noch|sind die Mor- gen-|glo- cken nicht|_|* im|fins- tern Tal er-|klun- * gen.|
"^dim." B6- | !fermata!B4 z!pp! .G | .G2 z2 B2 | B4 B2 | (A3 B) ^B^c | ^c2 z2!pp! .e2 | %17
w: _|* 2.~Wie|still des|Wal- des|wei- * ter _|Raum! wie|
 .e2 z2 .G2 | .G2 z2 .d2 | .d2 z2 .A2 | .A2 z2!pp! =c2 | c2 z2 c2 | c2 z2 c2 | B2 z2 B2 | %24
w: still, wie|still, wie|still, wie|still! Die|Vög- lein|zwit- schern|nur im|
 B2 z2 B2 |!<(! _B4!<)! B2 |!p!!>(! (_B2 A2)!>)! G2 | (A7/2 _B/ A>B) | A2 !fermata!z2 z!pp! =B | %29
w: Traum, kein|Sang hat|sich _ er-|schwun- * * *|gen. 3.~Ich|
 BB B3 B | BB B4- | B6- | B4- BB |"^cresc. poco a poco." cc c3 c | cc c4- | c6- | c4 z A | %37
w: hab' mich längst ins|Feld ge- macht,|_|* * und|ha- be schon dies|Lied er- dacht,|_|* und|
"^cresc." GA B3 B |!f! cd e4 |!mf! d2 z2 z2 |"^cresc." GA Bc dB |!<(! c4!<)! ^c2 |!ff! dd d2 d2 | %43
w: hab' es laut ge-|sun- * gen,|und|ha- be schon dies Lied er-|dacht, und|hab' es laut ge-|
 d4- dc | BB B3 B | BB B3 B |!f! cc c3 c | B2 B3 B | cc c3 c | (B3 cBc | B3 cBc) | !fermata!B4 |] %52
w: sun- * *|gen, und hab' es|laut ge- sun- gen,|hab' es laut ge-|sun- gen, und|hab' es laut ge-|sun- * * *||gen.|
V:3
!pp! D,2 | D,D, D,3 D, | D,D, D,4- | D,6- | D,4 G,2 | F,F, F,3 F, | F,F, F,4- | F,6- | F,4 F,2 | %9
 A,A, A,3 A, | A,A, A,4- |"^dim." A,6- | A,4 z!pp! .G, | .G,2 z2 G,2 | G,4 G,2 | %15
!>(! (E,2!>)! A,2) A,2 | A,2 z2!pp! .^C2 | .^C2 z2 .E,2 | .E,2 z2 .A,2 | .A,2 z2 .A,2 | %20
 .A,2 z2!pp! F,2 | F,2 z2 F,2 | F,2 z2 F,2 | G,2 z2 G,2 | G,2 z2 G,2 |!<(! G,4!<)! G,2 | %26
!p!!>(! G,4!>)! G,2 | (F,7/2 G,/ F,>G,) | F,2 !fermata!z2 z!pp! D, | D,D, D,3 D, | D,D, D,4- | %31
 D,6- | D,4- D,G, |"^cresc. poco a poco." F,F, F,3 F, | F,F, F,4- | F,6- | F,4 z F, | %37
"^cresc." G,G, G,3 G, |!f! C2 C4 |!mf! F,2 z2 z2 |"^cresc." G,G, G,G, G,G, | G,4 A,2 | %42
!ff! B,B, B,2 _B,2 | A,6 | G,D, D,3 D, | D,D, D,3 D, |!f! D,D, D,3 D, | D,2 D,3 D, | D,D, D,3 D, | %49
 (D,3 E,D,E, | D,3 E,D,E,) | D,4 |] %52
V:4
 G,,2 | G,,G,, G,,3 G,, | G,,G,, G,,4- | G,,6- | G,,4 G,,2 | D,D, D,3 D, | D,D, D,4- | D,6- | %8
 D,4 D,2 | ^D,E, D,3 D, | ^D,E, D,4- | D,6- | !fermata!D,4 x .E, | .E,2 x2 E,2 | E,4 G,,2 | %15
 A,,4 A,,2 | A,,2 x2 .A,2 | .A,2 x2 .^C,2 | .^C,2 x2 .D,2 | .D,2 x2 .F,2 | .F,2 x2 D,2 | %21
 D,2 x2 D,2 | D,2 x2 D,2 | D,2 x2 D,2 | D,2 x2 D,2 | _E,4 E,2 | _E,4 E,2 | D,6 | D,2 x2 x G,, | %29
 G,,G,, G,,3 G,, | G,,G,, G,,4- | G,,6- | G,,4- G,,G, | D,D, D,3 D, | D,D, D,4- | D,6- | D,4 x D, | %37
 G,G, G,3 G, | C,2 C,4 | C,2 x2 x2 | B,,C, D,E, =F,D, | E,4 E,2 | D,D, D,2 D,2 | D,6 | %44
 G,,G,, G,,3 G,, | G,,G,, G,,3 G,, | G,,G,, G,,3 G,, | G,,2 G,,3 G,, | G,,G,, G,,3 G,, | G,,6- | %50
 G,,6 | !fermata!G,,4 |] %52

